packages/brickdoc-design-icons/assets/basic/unpin.svg

<svg width="1em" height="1em" viewBox="0 0 24 24" fill="none" xmlns="http://www.w3.org/2000/svg">
<path fill-rule="evenodd" clip-rule="evenodd" d="M15.5523 4.38071L19.6193 8.44773L15 13.067C14.1248 13.9418 13.5609 15.0796 13.3946 16.3058C13.3541 16.6046 13.3378 16.9046 13.3451 17.203L6.79637 10.6543C8.2885 10.6914 9.79212 10.1409 10.933 9.00001L15.5523 4.38071ZM15.3765 16.5745C15.484 15.782 15.8485 15.0466 16.4142 14.4812L20.7238 10.1716L21.5858 11.0335C22.0598 11.5076 22.8356 11.5076 23.3096 11.0335C23.7837 10.5595 23.7837 9.78372 23.3096 9.30966L14.6903 0.690355C14.2163 0.216293 13.4405 0.216293 12.9665 0.690355C12.4924 1.16442 12.4924 1.94015 12.9665 2.41421L13.8284 3.27614L9.51876 7.5858C8.32929 8.77526 6.52786 8.9735 5.13153 8.18053C4.62299 7.89609 4.0024 7.93057 3.5973 8.33567L3.48525 8.44773C3.01118 8.92179 3.01118 9.69752 3.48525 10.1716L8.15683 14.8432L3.70709 19.2929C3.31657 19.6834 3.31657 20.3166 3.70709 20.7071C4.09762 21.0976 4.73078 21.0976 5.12131 20.7071L9.57104 16.2574L13.8284 20.5147C14.3025 20.9888 15.0782 20.9888 15.5523 20.5147L15.6643 20.4027C16.0694 19.9976 16.1039 19.377 15.8195 18.8685C15.4247 18.1729 15.2691 17.367 15.3765 16.5745Z" fill="currentColor"/>
</svg>

<svg  viewBox="0 0 24 24" width="1em" height="1em" fill="none" xmlns="http://www.w3.org/2000/svg"><path fill-rule="evenodd" clip-rule="evenodd" d="m15.552 4.38 4.067 4.068L15 13.067a5.653 5.653 0 0 0-1.655 4.136l-6.549-6.549A5.632 5.632 0 0 0 10.933 9l4.62-4.62Zm-.175 12.194a3.654 3.654 0 0 1 1.037-2.093l4.31-4.31.862.863c.474.474 1.25.474 1.724 0a1.222 1.222 0 0 0 0-1.724L14.69.69a1.222 1.222 0 0 0-1.723 0 1.222 1.222 0 0 0 0 1.724l.861.862-4.31 4.31a3.653 3.653 0 0 1-4.386.595c-.509-.285-1.13-.25-1.535.155l-.112.112a1.223 1.223 0 0 0 0 1.724l4.672 4.671-4.45 4.45a1 1 0 1 0 1.414 1.414l4.45-4.45 4.257 4.258c.475.474 1.25.474 1.724 0l.112-.112c.405-.405.44-1.026.155-1.534a3.653 3.653 0 0 1-.443-2.294Z" fill="#34313c"/></svg>
